X:106
T: \'Ciro Kolo
O: Croatia
M: C|
L: 1/8
P: A
K: A
|: "A"[AE][cA] [ec][ec] [ec][fd] [ec][cA] | "E7"[ec][ec] [dB][dB] "A"[cA][cA] [BG][AE] :| \
|: "A"[c2A] "E7"[ec][BG] "A"[c2A] "E7"[ec][BG] | "A"[cA][cA] "E7"[BG][BG] "A"[A4E] :|
P: D
K: D
|: "D"[dA][fd] [af][af] [af][bg] [af][fd] | "A7"[af][af] [ge][ge] "D"[fd][fd] [ec][dA] :| \
|: "D"[f2d] "A7"[af][ec] "D"[f2d] "A7"[af][ec] | "D"[fd][fd] "A7"[ec][ec] "D"[d4A] :|
P: G
K: G
|: "G"[GD][BG] [dB][dB] [dB][ec] [dB][BG] | "D7"[dB][dB] [cA][cA] "G"[BG][BG] [AF][GD] :| \
|: "G"[B2G] "D7"[dB][AF] "G"[B2G] "D7"[dB][AF] | "G"[BG][BG] "D7"[AF][AF] "G"[G4D] :|
